src/static/logos/udacity.svg

<?xml version="1.0" encoding="UTF-8"?>
<svg width="256px" height="256px" viewBox="0 0 256 256" version="1.1" xmlns="http://www.w3.org/2000/svg" xmlns:xlink="http://www.w3.org/1999/xlink" preserveAspectRatio="xMidYMid">
    <g>
        <path d="M239.483871,0.825806452 L165.16129,39.6387097 L165.16129,162.683871 C165.16129,167.63871 165.16129,173.419355 163.509677,178.374194 C162.683871,183.329032 161.032258,188.283871 159.380645,192.412903 C158.554839,193.23871 158.554839,194.890323 157.729032,195.716129 C155.251613,195.716129 137.083871,189.935484 128.825806,184.154839 C125.522581,181.677419 122.219355,179.2 118.916129,175.896774 C115.612903,172.593548 113.135484,169.290323 110.658065,165.987097 C108.180645,162.683871 105.703226,158.554839 104.051613,154.425806 C102.4,150.296774 100.748387,146.167742 99.9225806,141.212903 C99.0967742,137.083871 99.0967742,132.129032 99.0967742,128 L99.0967742,9.90967742 L82.5806452,0 L0,48.7225806 L0,161.858065 C0,213.883871 42.116129,256 93.316129,256 C110.658065,256 126.348387,251.870968 140.387097,243.612903 L209.754839,203.974194 C237.006452,189.935484 256,161.032258 256,128.825806 L256,10.7354839 L239.483871,0.825806452 Z M147.819355,216.36129 C140.387097,223.793548 134.606452,227.922581 126.348387,232.051613 C121.393548,233.703226 115.612903,236.180645 110.658065,237.832258 C105.703226,238.658065 100.748387,239.483871 95.7935484,239.483871 C90.8387097,239.483871 82.5806452,238.658065 77.6258065,237.832258 C72.6709677,237.006452 67.716129,235.354839 63.5870968,233.703226 C59.4580645,232.051613 54.5032258,229.574194 50.3741935,226.270968 C39.6387097,218.83871 34.683871,212.232258 29.7290323,205.625806 C27.2516129,201.496774 24.7741935,197.367742 22.2967742,192.412903 C20.6451613,187.458065 18.9935484,183.329032 18.1677419,178.374194 C16.516129,172.593548 16.516129,166.812903 16.516129,161.858065 L16.516129,58.6322581 L82.5806452,19.8193548 L82.5806452,128 C82.5806452,169.290323 113.135484,203.148387 151.948387,211.406452 C150.296774,213.058065 149.470968,214.709677 147.819355,216.36129 L147.819355,216.36129 Z M238.658065,142.03871 C237.832258,146.167742 236.180645,150.296774 234.529032,154.425806 C232.877419,158.554839 229.574194,164.335484 226.270968,168.464516 C221.316129,174.245161 216.36129,178.374194 203.974194,185.806452 C193.23871,191.587097 184.154839,193.23871 178.374194,194.890323 C182.503226,184.980645 182.503226,174.245161 182.503226,162.683871 L181.677419,49.5483871 L239.483871,18.9935484 L239.483871,128.825806 C239.483871,132.954839 239.483871,137.909677 238.658065,142.03871 L238.658065,142.03871 Z" fill="#02B3E4" fill-rule="nonzero"></path>
    </g>
</svg>

<svg width="256" height="256" xmlns="http://www.w3.org/2000/svg" preserveAspectRatio="xMidYMid"><path d="M239.484.826L165.16 39.639v123.045c0 4.955 0 10.735-1.651 15.69-.826 4.955-2.478 9.91-4.13 14.039-.825.826-.825 2.477-1.651 3.303-2.477 0-20.645-5.78-28.903-11.561-3.303-2.478-6.607-4.955-9.91-8.258-3.303-3.303-5.78-6.607-8.258-9.91-2.477-3.303-4.955-7.432-6.606-11.561-1.652-4.13-3.304-8.258-4.13-13.213-.825-4.13-.825-9.084-.825-13.213V9.91L82.58 0 0 48.723v113.135C0 213.884 42.116 256 93.316 256c17.342 0 33.032-4.129 47.071-12.387l69.368-39.639C237.006 189.935 256 161.032 256 128.826V10.736L239.484.825zM147.819 216.36c-7.432 7.433-13.213 11.562-21.47 15.69-4.955 1.652-10.736 4.13-15.69 5.781-4.956.826-9.91 1.652-14.865 1.652s-13.213-.826-18.168-1.652-9.91-2.477-14.039-4.129c-4.129-1.651-9.084-4.129-13.213-7.432-10.735-7.432-15.69-14.039-20.645-20.645-2.477-4.13-4.955-8.258-7.432-13.213-1.652-4.955-3.303-9.084-4.13-14.039-1.65-5.78-1.65-11.561-1.65-16.516V58.632L82.58 19.82V128c0 41.29 30.554 75.148 69.367 83.406-1.651 1.652-2.477 3.304-4.129 4.955zm90.84-74.322c-.827 4.129-2.478 8.258-4.13 12.387-1.652 4.129-4.955 9.91-8.258 14.039-4.955 5.78-9.91 9.91-22.297 17.341-10.735 5.781-19.82 7.433-25.6 9.084 4.13-9.91 4.13-20.645 4.13-32.206l-.827-113.136 57.807-30.554v109.832c0 4.129 0 9.084-.826 13.213z" fill="#02B3E4"/></svg>
